src/icons/flow.svg

<svg xmlns="http://www.w3.org/2000/svg" width="16" height="16" fill="none"><path fill="#FFCB6B" d="m3.013 3 3.322 3.333H3.686l2.622 2.632H3l4.008 4.022V4.443H9.01l.875.878H7.937v3.293h.946l1.05 1.053H7.881l.014.014V13h4.68l-1.68-1.687v-.68l.362.365v-3.33h-.672V6.026l1.291 1.295V3.987H9.095L8.111 3H3.013"/></svg>

<svg width="16" height="16" viewBox="0 0 16 16" fill="none" xmlns="http://www.w3.org/2000/svg">
<path d="M3.013 3L6.335 6.333H3.686L6.308 8.965H3L7.008 12.987V4.443H9.01L9.885 5.321H7.937V8.614H8.883L9.933 9.667H7.881L7.895 9.681V13H12.575L10.895 11.313V10.633L11.257 10.998V7.668H10.585V6.026L11.876 7.321V3.987H9.095L8.111 3H3.013Z" fill="#FFCB6B"/>
</svg>
